media/kauf_bkt/type3/6.svg

<svg xmlns:inkscape="http://www.inkscape.org/namespaces/inkscape" xmlns:sodipodi="http://sodipodi.sourceforge.net/DTD/sodipodi-0.dtd" xmlns="http://www.w3.org/2000/svg" xmlns:svg="http://www.w3.org/2000/svg" xmlns:vectornator="http://vectornator.io" stroke-miterlimit="10" style="clip-rule:evenodd;fill-rule:nonzero;stroke-linecap:round;stroke-linejoin:round" version="1.1" viewBox="0 0 530 527.18835" xml:space="preserve" id="svg5" sodipodi:docname="6.svg" inkscape:version="1.3 (0e150ed6c4, 2023-07-21)" class="">
    <sodipodi:namedview id="namedview5" pagecolor="#ffffff" bordercolor="#666666" borderopacity="1.0" inkscape:showpageshadow="2" inkscape:pageopacity="0.0" inkscape:pagecheckerboard="0" inkscape:deskcolor="#d1d1d1" inkscape:zoom="1.1741488" inkscape:cx="399.01246" inkscape:cy="287.44227" inkscape:window-width="1920" inkscape:window-height="1120" inkscape:window-x="-11" inkscape:window-y="-11" inkscape:window-maximized="1" inkscape:current-layer="svg5"/>
<defs id="defs1">
        <inkscape:path-effect effect="knot" id="path-effect5" is_visible="true" lpeversion="1" switcher_size="15" interruption_width="4.2" prop_to_stroke_width="true" add_stroke_width="inkscape_1.0_and_up" both="false" inverse_width="false" add_other_stroke_width="inkscape_1.0_and_up" crossing_points_vector=""/>
    </defs>



<g clip-path="url(#ArtboardFrame_92)" id="Layer-2" vectornator:layerName="Layer 2" transform="matrix(1,0,0,-1,15,514.52002)">
<clipPath id="ClipPath_2">

            <path d="M 450.763,-0.268002 240.638,199.31 291.75,253.261 260.899,300.621 200.396,239.551 -30.7388,480.423 72.9236,631.959 518.627,613.32 610.18,500.386 605.246,189.545 594.281,-13.2963 530.139,-73.6005 Z" id="path4"/>

        </clipPath>
<g clip-path="url(#ClipPath_2)" id="g5">

</g>

        <path d="M 447.90792,143.02553 C 478.08608,170.81786 502.26734,206.47197 517.03362,250 1293.1648,1328.3844 -165.83917,707.25626 -14.211801,515.43825 L 207.33022,294.22067 M 296.4931,205.18837 514.12526,-12.125079 C 1005.7842,-185.11392 944.23453,357.86055 760.79197,534.8017 m -114.10185,53.79556 c -43.01846,0.008 -87.66849,-23.01309 -130.45151,-77.83873 L -13.511338,-12.431955 C -384.45856,-223.48181 -217.10858,540.59194 -15.330255,253.40672 -1.2783129,208.15528 23.040678,171.23221 53.860136,142.65089 M 169.55787,79.824885 c 52.84514,-14.193202 109.97148,-14.074862 162.93624,0.384954" fill="none" opacity="1" class="" stroke="#ffb86c" stroke-linecap="butt" stroke-linejoin="round" stroke-width="30" id="path5" style="clip-rule:evenodd;fill-rule:nonzero;stroke-linecap:round;stroke-linejoin:round" sodipodi:nodetypes="ccccccc" inkscape:path-effect="#path-effect5" inkscape:original-d="M -14.211801,515.43825 514.12526,-12.125079 c 683.32214,-240.424991 298.052,902.123389 2.11335,522.883609 L -13.511338,-12.431955 C -384.45856,-223.48181 -217.10858,540.59194 -15.330255,253.40672 60.445879,9.3849745 434.78625,7.5513017 517.03362,250 1293.1648,1328.3844 -165.83917,707.25626 -14.211801,515.43825 Z"/>
    </g>

</svg>

<svg xmlns="http://www.w3.org/2000/svg" xmlns:vectornator="http://vectornator.io" xml:space="preserve" stroke-miterlimit="10" style="clip-rule:evenodd;fill-rule:nonzero;stroke-linecap:round;stroke-linejoin:round" viewBox="0 0 530 527.188"><g vectornator:layerName="Layer 2" clip-path="url(#ArtboardFrame_92)" transform="matrix(1 0 0 -1 15 514.52)"><clipPath id="a"><path d="M450.763-.268 240.638 199.31l51.112 53.951-30.851 47.36-60.503-61.07-231.135 240.872L72.924 631.959l445.703-18.639 91.553-112.934-4.934-310.841-10.965-202.841L530.139-73.6Z"/></clipPath><path fill="none" stroke="#ffb86c" stroke-linecap="butt" stroke-width="30" d="M447.908 143.026c30.178 27.792 54.36 63.446 69.126 106.974 776.13 1078.384-682.873 457.256-531.246 265.438L207.33 294.221m89.163-89.033L514.125-12.125c491.66-172.989 430.11 369.986 246.667 546.927M646.69 588.597c-43.018.008-87.668-23.013-130.451-77.838L-13.511-12.432c-370.948-211.05-203.598 553.024-1.82 265.839 14.053-45.252 38.372-82.175 69.191-110.756m115.698-62.826c52.845-14.193 109.971-14.075 162.936.385" style="clip-rule:evenodd;fill-rule:nonzero;stroke-linecap:round;stroke-linejoin:round"/></g></svg>
